X:676
T:Reel 676
M:4/4
K:Dmaj
L:1/8
dB|AFdB AFDF|AFdB AFDF|AFdB AFDF|GEeF GBde|fddc dBAF|DFAF A2de|fdad gecd|BdAF D2|GA|dcdA BAFA|dcdB A2FA|dcdA BAFD|GBAF F2FA|dcdA BdAF|GFGA Bcde| (3fga ec dcBA|BABc d2|
